X:1
T:Billy Boy
M:4/4
L:1/4
K:C
 B3/4- c/4| d d3/4 d/4 g B3/4 c/4| d d3/4 d/4 d B3/4- c/4| d d3/4 d/4 g B|\
 B B A/2A/2| A3/4 B/4| c c3/4 c/4 c d3/4 c/4| B3/4- A/4 B3/4 c/4 d d3/4 d/4|\
 g B3/4 B/4 B A| A A G||
